X:11
T:Happy Today
T:Le Perouse Universal Mission to Aborigines 1935
C:Tom Foster 1870-1942
C:First Nations Dharwal Man
O:New South Walses
S:https://nla.gov.au/nla.obj-181580080
L:1/8
M:6/8
I:linebreak $
K:D
A, | F>EF D>CD | E>DE B,2 B,/B,/ | C3 A,2 A, | F3 F z A/A/ | F>^EF D>CD | E>^DE B,2 A/A/ | 
w:I'm Ha-ppy to-day
^G3 F2 E |$ A3 C z A, | A2 F D2 B, | C3 C z A, | A2 G E2 G | F3 F z A, | FFF FEF | G2 A B2 B | 
AAD FFE |$ D3 D z2 :| 

